!!!OTL: "Die harrende Braut" DER FRUEHLING KAM UND DIE NACHTIGALL
!!!ARE: Europa, Mitteleuropa, Deutschland, Rhein
!!!SCT: Z1110
!!!YEM: Copyright 1995, estate of Helmut Schaffrath.
**kern
*ICvox
*Ivox
*M4/4
*k[b-]
*F:
{8f
8g
=1
4a
4a
4a
8cc
8b-
=2
4a
4a
4a}
{8g
8a
=3
4b-
4b-
4b-
8cc
8b-
=4
2a
4r}
{8g
8a
=5
4b-
8b-
8b-
8b-
8dd
8cc
8b-
=6
4a
4a
4a}
{8g
8a
=7
4b-
4b-
8b-
8dd
8cc
8b-
=8
4a
4a
4a}
{8cc
8b-
=9
4a
8cc
8b-
4a
8cc
8b-
=10
4a
2r}
{8b-
8a
=11
4g
8b-
8a
4g
8b-
8a
=12
4g
2r}
{8f
8a
=13
4cc
8cc
8cc
8cc
8ff
8ee
8dd
=14
4cc
8cc
8b-
4a}
{8g
8a
=15
4b-
4b-
4cc
8b-
8a
=16
2g
4r}
{8a
8g
=17
2.f
8g
8a
=18
4a
4b-
4a
4g
=19
2f
4r}
==
!!!AGN: Romanze, Ballade, verlassene Liebe
!!!ONB: ESAC (Essen Associative Code) Database: ZUCCAL
!!!AMT: simple quadruple
!!!AIN: vox
!!!EED: Helmut Schaffrath
!!!EEV: 1.0
*-
